!!!SOCIAL_FUNCTION:	memorial ceremony songs
!!!PDT:	1932
!!!OTL: No_26_Memorial_Ceremony_Song_(g).krn
!!!REG: Southwest
!!!LANG: Non-Tone
!!!LING_GROUP: Yuman-Cochimi
**kern
*staff1
=1-
=
*clefF4
*k[b-e-]
*M2/4
4A\
8A\L
8B-\J
=2
4G\
8G\
8r
=3
4r
8r
8G\
=4
4A\
8A\L
8B-\J
=5
4G\
8G\
8r
=6
4r
8r
8D\
=7
8G\L
8G\J
4G\
=8
8D\L
8D\J
8D\
8r
=9
4r
8r
8D\
=10
8G\L
8G\J
4G\
=11
8D\L
8D\J
8D\
8r
=12
8G\L
8G\J
4G\
=13
4G\
4G\
=14
8G\L
8G\J
4G\
=15
4G\
4G\
=16
4F#\
4r
=17
4B-\
8B-\L
8c\J
=18
4G\
8G\L
8B-\J
=19
8G\L
8G\J
4G\
=20
4G\
4G\
=21
4G\
8G\L
8B-\J
=22
4G\
4r
==:|!
*-
